X:1
T:Thanksgiving
T:Thanksgiving
T:David Stiles Hakes
T:Franklin Edson Belden, 1882
T:Public Domain Courtesy of the Cyber Hymnal™
T:Public Domain Courtesy of the Cyber Hymnal™
C:David Stiles Hakes
Z:Public Domain
Z:Courtesy of the Cyber Hymnal™
%%score ( 1 2 ) ( 3 4 )
L:1/8
Q:1/4=103
M:4/4
K:G
V:1 treble 
V:2 treble 
V:3 bass 
V:4 bass 
V:1
 (GA) | [GB]3 [GB] [GB][FA]G[DG] | ([EG]4 [CE]2) [CE]2 | D3 [DG] (cB) ([CE][EA]) | (G4 F2) [Fd]2 | %5
w: 1.~Thanks- *|giv- ing to the Lord be-|longs * For|all His love * and *|care; * With|
w: 2.~He *|speaks, and wak- ing na- ture|smiles * In|bloom- ing ver- * dure, *|gay, * And|
w: 3.~Oh! *|praise the Lord, whose works ap-|pear * In|Hea- ven, earth * and *|sea; * His|
 [Gd]3 [Ad] [Gd][Gd][Fc][GB] | ([Ge]4 [Ec]2) [EA]2 | [DG]3 [DG] (BA) (GF) | [DG]6 [DB]2 | %9
w: grate- ful hearts and thank- ful|songs, * Thanks-|giv- ing all * may *|share. Our|
w: Spring in mer- ry song re-|viles * Old|Win- ter, cold * and *|gray. He|
w: might- y name let all re-|vere, * And|ev- er thank- * ful *|be. He|
 [DA]3 [DB] [Dc][DF][DG][DA] | (B4 d2) [Gd]2 | [Fd]3 [G^c] [GB]2 [Gc]2 | [Fd]6 [Ac]2 | %13
w: Fa- ther from His boun- teous|hand * Lets|ma- ny bless- ings|fall; Our|
w: robes the earth in ripe- ness|o’er, * His|good- ness to pro-|claim; He|
w: is a re- fuge for the|soul * Who|trusts in Him a-|lone, And|
 [GB]3 [GB] [GB][FA]G[DG] | ([EG]4 [CE]2) [Ec]2 | [DB]3 [DG] (BA) (GF) | [DG]6 ||"^Refrain" [GB]2 | %18
w: life, our friends and free- dom’s|land, * We|owe to Him * our *|all.||
w: crowns the year with har- vest|store; * Thanks-|giv- ing to * His *|name.|Sing|
w: when our years shall cease to|roll, * We’ll|praise him round * His *|throne.||
 [FA]6 [Fd]>[FA] | [GB]6 [Gd]2 | [Fd]3 [G^c] [GB]2 [Gc]2 | [Fd]6 [Ac]2 | [GB]3 [GB] [GB][FA]G[DG] | %23
w: |||||
w: praise, to the|Lord, For|all His boun- ties|shown; Let|ev- ery heart a tri- bute|
w: |||||
 ([EG]4 [CE]2) [Ec]2 | [DB]3 [DG] ([GB][DA]) (GF) | [DG]6 |] %26
w: |||
w: bring, * And|make His good- * ness *|known.|
w: |||
V:2
 D2 | x6 G x | x8 | D3 D2 x3 | D6 x2 | x8 | x8 | x4 D2 D2 | x8 | x8 | D6 x2 | x8 | x8 | x6 G x | %14
 x8 | x4 D2 D2 | x6 || x2 | x8 | x8 | x8 | x8 | x6 G x | x8 | x6 D2 | x6 |] %26
V:3
 (B,C) | [G,D]3 [G,D] [G,D][D,D][B,,D][B,,D] | (C4 G,2) [C,G,]2 | %3
w: ~ *|~ ~ ~ ~ ~ ~|~ * ~|
 [B,,G,]3 [B,,G,] ([A,,F,][G,,G,]) (G,C) | (B,4 A,2) [D,A,]2 | %5
w: ~ ~ ~ * ~ *|~ * ~|
 [G,B,]3 [F,C] [G,B,][B,D][A,D][G,D] | (C4 G,2) [C,C]2 | [D,B,]3 [D,B,] (DC) (B,A,) | %8
w: ~ ~ ~ ~ ~ ~|~ * ~|~ ~ ~ * ~ *|
 [G,,B,]6 [G,,G,]2 | [D,F,]3 [D,G,] [D,A,][C,A,][B,,G,][D,F,] | (G,4 B,2) [G,B,]2 | %11
w: ~ ~|~ ~ ~ ~ ~ ~|~ * ~|
 A,3 A, [A,,A,]2 [A,,A,]2 | [D,A,]6 [D,D]2 | [G,D]3 [G,D] [G,D][D,D][B,,D][B,,D] | %14
w: ~ ~ ~ ~|~ ~|~ ~ ~ ~ ~ ~|
 (C4 G,2) [C,G,]2 | [D,G,]3 [D,B,] (DC) (B,B,) | [G,,B,]6 || z2 | z2 [D,D]>[D,D] [D,D]2 z2 | %19
w: ~ * ~|~ ~ ~ * ~ *|~||Thank- ful praise|
 z2 [G,D]>[G,D] [G,D]2 [G,B,]2 | A,3 A, [A,,A,]2 [A,,A,]2 | [D,A,]6 [D,D]2 | %22
w: to the Lord. *|||
 [G,D]3 [G,D] [G,D][D,D][B,,D][B,,D] | (C4 G,2) [C,G,]2 | [D,G,]3 [D,B,] (DC) (B,A,) | [G,,B,]6 |] %26
w: ||||
V:4
 G,2 | x8 | C,6 x2 | x6 C,2 | D,6 x2 | x8 | C,6 x2 | x4 D,2 D,2 | x8 | x8 | G,6 x2 | A,3 A, x4 | %12
 x8 | x8 | C,6 x2 | x4 D,2 D,2 | x6 || x2 | x8 | x8 | A,3 A, x4 | x8 | x8 | C,6 x2 | x4 D,2 D,2 | %25
 x6 |] %26

